assets/images/telegram.svg

<svg width="48" height="48" viewBox="0 0 48 48" fill="none" xmlns="http://www.w3.org/2000/svg">
<circle cx="24" cy="24" r="24" fill="#3390EC"/>
<path d="M12.6632 23.2393C12.7078 23.2154 12.7525 23.1927 12.796 23.1712C13.5528 22.7958 14.3197 22.4444 15.0855 22.0929C15.1268 22.0929 15.196 22.0415 15.235 22.0248C15.2942 21.9973 15.3534 21.971 15.4125 21.9435L15.753 21.7869C15.9807 21.6829 16.2073 21.5789 16.435 21.4749C16.8893 21.2669 17.3437 21.0589 17.798 20.8497C18.7066 20.4337 19.6164 20.0166 20.525 19.6006C21.4337 19.1846 22.3434 18.7674 23.2521 18.3514C24.1607 17.9354 25.0704 17.5182 25.9791 17.1022C26.8877 16.6862 27.7975 16.269 28.7061 15.853C28.9082 15.7598 29.127 15.6211 29.3435 15.5805C29.5255 15.5458 29.7029 15.4789 29.886 15.4418C30.2332 15.3713 30.616 15.3426 30.9487 15.4968C31.0637 15.5506 31.1697 15.6259 31.2579 15.7204C31.6798 16.1674 31.6207 16.9014 31.5314 17.5302C30.9096 21.9124 30.2879 26.2959 29.665 30.6782C29.5801 31.2794 29.4641 31.9393 29.0209 32.3194C28.6458 32.641 28.1123 32.6768 27.649 32.5406C27.1858 32.4031 26.7772 32.115 26.3765 31.8317C24.7144 30.6531 23.0511 29.4744 21.389 28.2958C20.9939 28.016 20.5541 27.6503 20.5585 27.1422C20.5608 26.8362 20.7315 26.5637 20.9057 26.321C22.3501 24.3032 24.4342 22.9166 25.9847 20.992C26.2035 20.7206 26.3754 20.2305 26.0751 20.0739C25.8965 19.9807 25.6911 20.1074 25.5281 20.2281C23.4786 21.7523 21.4303 23.2776 19.3809 24.8017C18.7122 25.2989 18.0112 25.8106 17.2053 25.9325C16.4841 26.0425 15.7586 25.8273 15.0609 25.6074C14.476 25.4233 13.8922 25.2344 13.3106 25.0396C13.0014 24.9367 12.6821 24.8256 12.4433 24.5925C12.2044 24.3594 12.0671 23.9673 12.2111 23.6565C12.3015 23.4616 12.4768 23.3385 12.6609 23.2381L12.6632 23.2393Z" fill="white"/>
</svg>

<svg width="48" height="48" fill="none" xmlns="http://www.w3.org/2000/svg"><circle cx="24" cy="24" r="24" fill="#3390EC"/><path d="M12.663 23.24c.045-.025.09-.047.133-.069.757-.375 1.524-.727 2.29-1.078.04 0 .11-.052.149-.068l.178-.081.34-.157.682-.312 1.363-.625 2.727-1.25c.909-.415 1.818-.833 2.727-1.249l2.727-1.249 2.727-1.249c.202-.093.421-.232.637-.272.183-.035.36-.102.543-.14.347-.07.73-.098 1.063.056.115.054.22.129.309.223.422.447.363 1.181.273 1.81-.621 4.382-1.243 8.766-1.866 13.148-.085.601-.2 1.261-.644 1.641-.375.322-.909.358-1.372.222-.463-.138-.872-.426-1.273-.71l-4.987-3.535c-.395-.28-.835-.646-.83-1.154.002-.306.172-.578.347-.821 1.444-2.018 3.528-3.404 5.079-5.329.218-.271.39-.762.09-.918-.178-.093-.384.033-.547.154-2.05 1.524-4.098 3.05-6.147 4.574-.669.497-1.37 1.009-2.176 1.13-.72.11-1.446-.105-2.144-.325a100.81 100.81 0 0 1-1.75-.567c-.31-.103-.629-.214-.868-.447-.239-.234-.376-.626-.232-.936.09-.195.266-.319.45-.419l.002.001Z" fill="#fff"/></svg>
